docs/images/search--active.svg

<svg width="20" height="20" viewBox="0 0 20 20" fill="none" xmlns="http://www.w3.org/2000/svg">
<path d="M17.8187 16.0625L14.607 13.3156C15.5516 12.0945 16.0625 10.6016 16.0625 9.03125C16.0625 7.15156 15.3289 5.38906 14.0023 4.06016C12.6758 2.73125 10.9086 2 9.03125 2C7.15391 2 5.38672 2.73359 4.06016 4.06016C2.73125 5.38672 2 7.15156 2 9.03125C2 10.9086 2.73359 12.6758 4.06016 14.0023C5.38672 15.3312 7.15156 16.0625 9.03125 16.0625C10.6016 16.0625 12.0922 15.5516 13.3133 14.6094L16.5249 17.3539C16.5428 17.3718 16.564 17.3859 16.5873 17.3956C16.6106 17.4053 16.6356 17.4102 16.6609 17.4102C16.6861 17.4102 16.7111 17.4053 16.7344 17.3956C16.7578 17.3859 16.7789 17.3718 16.7968 17.3539L17.8187 16.3344C17.8365 16.3165 17.8507 16.2953 17.8604 16.272C17.87 16.2487 17.875 16.2237 17.875 16.1984C17.875 16.1732 17.87 16.1482 17.8604 16.1249C17.8507 16.1015 17.8365 16.0803 17.8187 16.0625ZM12.7438 12.7438C11.75 13.7352 10.4328 14.2812 9.03125 14.2812C7.62969 14.2812 6.3125 13.7352 5.31875 12.7438C4.32734 11.75 3.78125 10.4328 3.78125 9.03125C3.78125 7.62969 4.32734 6.31016 5.31875 5.31875C6.3125 4.32734 7.62969 3.78125 9.03125 3.78125C10.4328 3.78125 11.7523 4.325 12.7438 5.31875C13.7352 6.3125 14.2812 7.62969 14.2812 9.03125C14.2812 10.4328 13.7352 11.7523 12.7438 12.7438Z" fill="#A65CF0"/>
</svg>

<svg width="20" height="20" fill="none" xmlns="http://www.w3.org/2000/svg"><path d="M17.819 16.063l-3.212-2.747a6.968 6.968 0 001.456-4.285c0-1.88-.734-3.642-2.06-4.97A6.98 6.98 0 009.03 2a6.99 6.99 0 00-4.97 2.06A6.975 6.975 0 002 9.031c0 1.878.734 3.645 2.06 4.971a6.975 6.975 0 004.971 2.06c1.57 0 3.061-.51 4.282-1.453l3.212 2.745a.193.193 0 00.272 0l1.022-1.02a.195.195 0 00.056-.136.193.193 0 00-.056-.136zm-5.075-3.32a5.222 5.222 0 01-3.713 1.538 5.222 5.222 0 01-3.712-1.537A5.222 5.222 0 013.78 9.03c0-1.401.546-2.72 1.538-3.712A5.222 5.222 0 019.03 3.78c1.402 0 2.721.544 3.713 1.538A5.222 5.222 0 0114.28 9.03a5.218 5.218 0 01-1.537 3.713z" fill="#A65CF0"/></svg>
